X:1
T:I Need Thee Evry Hour
T:I Need Thee Every Hour
T:Robert Lowry, Arr. Joseph Heath 
T:Hymn of The Church of Jesus Christ of Latter Day Saints
C:Robert Lowry  Arr. Joseph Heath
%%score { 1 | 2 }
L:1/8
M:3/4
K:G
V:1 treble-8 nm="Guitar" snm="Guit."
V:2 tab stafflines=6 strings=E2,A2,D3,G3,B3,E4 nostems 
V:1
 z4 G,2 | D2 G2 D2 | B2 D2 G2 | D2 G,2 D2 | G2 D2 B2 | D2 !>!G2 D2 | [G,B]2 D2 G2 | %7
 [CA]2 [DG]2 [DF]2 | [G,G]2 D2 G2 | D2 !>!G2 D2 | [CG]2 E2 G2 | [CA]2 [CG]2 E2 | !>![G,D]2 D2 G2 | %13
 D2 !>!G2 D2 | [DA]4 D2 | [DB]2 [DA]2 D2 | [G,B]2 D2 G2 | D2 !>!G2 D2 | [A,F]4 D2 | %19
 [A,G]2 [DF]2 [^CE]2 | D6 | [GB]4 [G,GB]2 | D2 G2 D2 | [Gc]2 [GB]2 [G,B]2 | D2 [DA]4 | A4 [DA]2- | %26
 [DA]2 D2 [DG]2 | [DB]2 [DA]2 [G,A]2 | D2 G4 | [CG]2 E2 G2 | [CA]2 [CG]2 E2 | [G,D]2 G,2 G2- | %32
 G2 [CA]4 | [G,B]4 D2 | G2 [CA]4 | [G,G]2 D2 G2 | D2 !arpeggio![G,DGB]4- | [G,DGB]6- | [G,DGB]6- | %39
 [G,DGB]6- | [G,DGB]6- | [G,DGB]6 |] %42
V:2
 x4 !6!G,,2 | !4!D,2 !3!G,2 !4!D,2 | !2!B,2 !4!D,2 !3!G,2 | !4!D,2 !6!G,,2 !4!D,2 | %4
 !3!G,2 !4!D,2 !2!B,2 | !4!D,2 !>!!3!G,2 !4!D,2 | [!6!G,,!2!B,]2 !4!D,2 !3!G,2 | %7
 [!5!C,!3!A,]2 [!4!D,!3!G,]2 [!5!D,!4!F,]2 | [!6!G,,!3!G,]2 !4!D,2 !3!G,2 | %9
 !4!D,2 !>!!3!G,2 !4!D,2 | [!5!C,!3!G,]2 !4!E,2 !3!G,2 | [!5!C,!3!A,]2 [!5!C,!3!G,]2 !4!E,2 | %12
 !>![!6!G,,!4!D,]2 !4!D,2 !3!G,2 | !4!D,2 !>!!3!G,2 !4!D,2 | [!4!D,!3!A,]4 !4!D,2 | %15
 [!4!D,!3!B,]2 [!4!D,!3!A,]2 !4!D,2 | [!6!G,,!2!B,]2 !4!D,2 !3!G,2 | !4!D,2 !>!!3!G,2 !4!D,2 | %18
 [!5!A,,!4!F,]4 !5!D,2 | [!5!A,,!4!G,]2 [!5!D,!4!F,]2 [!5!^C,!4!E,]2 | !4!D,6 | %21
 [!3!G,!2!B,]4 [!6!G,,!3!G,!2!B,]2 | !4!D,2 !3!G,2 !4!D,2 | %23
 [!3!G,!2!C]2 [!3!G,!2!B,]2 [!6!G,,!2!B,]2 | !4!D,2 [!4!D,!3!A,]4 | !3!A,4 [!4!D,!3!A,]2- | %26
 [!4!D,!3!A,]2 !4!D,2 [!4!D,!3!G,]2 | [!4!D,!3!B,]2 [!4!D,!3!A,]2 [!6!G,,!3!A,]2 | !4!D,2 !3!G,4 | %29
 [!5!C,!3!G,]2 !4!E,2 !3!G,2 | [!5!C,!3!A,]2 [!5!C,!3!G,]2 !4!E,2 | %31
 [!6!G,,!4!D,]2 !6!G,,2 !3!G,2- | !3!G,2 [!5!C,!3!A,]4 | [!6!G,,!2!B,]4 !4!D,2 | %34
 !3!G,2 [!5!C,!3!A,]4 | [!6!G,,!3!G,]2 !4!D,2 !3!G,2 | !4!D,2 !arpeggio![!6!G,,!4!D,!3!G,!2!B,]4- | %37
 [!6!G,,!4!D,!3!G,!2!B,]6- | [!6!G,,!4!D,!3!G,!2!B,]6- | [!6!G,,!4!D,!3!G,!2!B,]6- | %40
 [!6!G,,!4!D,!3!G,!2!B,]6- | [!6!G,,!4!D,!3!G,!2!B,]6 |] %42

